packages/elvis-assets-icons/icons/svg/src/arrow_right_circle.svg

<svg width="24" height="24" viewBox="0 0 24 24" fill="none" xmlns="http://www.w3.org/2000/svg">
<path fill-rule="evenodd" clip-rule="evenodd" d="M6.39999 12C6.39999 11.5582 6.75817 11.2 7.19999 11.2H16.8C17.2418 11.2 17.6 11.5582 17.6 12C17.6 12.4418 17.2418 12.8 16.8 12.8H7.19999C6.75817 12.8 6.39999 12.4418 6.39999 12Z" fill="black"/>
<path fill-rule="evenodd" clip-rule="evenodd" d="M12.2343 7.43433C12.5467 7.12191 13.0533 7.12191 13.3657 7.43433L17.3657 11.4343C17.6781 11.7467 17.6781 12.2533 17.3657 12.5657L13.3657 16.5657C13.0533 16.8781 12.5467 16.8781 12.2343 16.5657C11.9219 16.2533 11.9219 15.7467 12.2343 15.4343L15.6686 12L12.2343 8.5657C11.9219 8.25328 11.9219 7.74675 12.2343 7.43433Z" fill="black"/>
<path fill-rule="evenodd" clip-rule="evenodd" d="M12 1.6C6.25624 1.6 1.6 6.25624 1.6 12C1.6 17.7438 6.25624 22.4 12 22.4C17.7438 22.4 22.4 17.7438 22.4 12C22.4 6.25624 17.7438 1.6 12 1.6ZM0 12C0 5.37258 5.37258 0 12 0C18.6274 0 24 5.37258 24 12C24 18.6274 18.6274 24 12 24C5.37258 24 0 18.6274 0 12Z" fill="black"/>
</svg>

<svg width="24" height="24" fill="none" xmlns="http://www.w3.org/2000/svg"><path fill-rule="evenodd" clip-rule="evenodd" d="M6.4 12a.8.8 0 01.8-.8h9.6a.8.8 0 010 1.6H7.2a.8.8 0 01-.8-.8z" fill="#000"/><path fill-rule="evenodd" clip-rule="evenodd" d="M12.234 7.434a.8.8 0 011.132 0l4 4a.8.8 0 010 1.132l-4 4a.8.8 0 01-1.132-1.132L15.67 12l-3.435-3.434a.8.8 0 010-1.132z" fill="#000"/><path fill-rule="evenodd" clip-rule="evenodd" d="M12 1.6C6.256 1.6 1.6 6.256 1.6 12c0 5.744 4.656 10.4 10.4 10.4 5.744 0 10.4-4.656 10.4-10.4 0-5.744-4.656-10.4-10.4-10.4zM0 12C0 5.373 5.373 0 12 0s12 5.373 12 12-5.373 12-12 12S0 18.627 0 12z" fill="#000"/></svg>
